pim-2023/src/assets/lockIcon.svg

<svg width="14" height="17" viewBox="0 0 14 17" fill="none" xmlns="http://www.w3.org/2000/svg">
<path d="M7 12.9524C6.53587 12.9524 6.09075 12.7818 5.76256 12.4782C5.43437 12.1745 5.25 11.7627 5.25 11.3333C5.25 10.4348 6.02875 9.71429 7 9.71429C7.46413 9.71429 7.90925 9.88486 8.23744 10.1885C8.56563 10.4921 8.75 10.9039 8.75 11.3333C8.75 11.7627 8.56563 12.1745 8.23744 12.4782C7.90925 12.7818 7.46413 12.9524 7 12.9524ZM12.25 15.381V7.28571H1.75V15.381H12.25ZM12.25 5.66667C12.7141 5.66667 13.1592 5.83724 13.4874 6.14088C13.8156 6.44451 14 6.85632 14 7.28571V15.381C14 15.8104 13.8156 16.2222 13.4874 16.5258C13.1592 16.8294 12.7141 17 12.25 17H1.75C1.28587 17 0.840752 16.8294 0.512563 16.5258C0.184374 16.2222 0 15.8104 0 15.381V7.28571C0 6.38714 0.77875 5.66667 1.75 5.66667H2.625V4.04762C2.625 2.97412 3.08594 1.9446 3.90641 1.18552C4.72688 0.426444 5.83968 0 7 0C7.57453 0 8.14344 0.104695 8.67424 0.308107C9.20504 0.511519 9.68734 0.809664 10.0936 1.18552C10.4998 1.56138 10.8221 2.00758 11.042 2.49866C11.2618 2.98974 11.375 3.51608 11.375 4.04762V5.66667H12.25ZM7 1.61905C6.30381 1.61905 5.63613 1.87491 5.14384 2.33036C4.65156 2.78581 4.375 3.40352 4.375 4.04762V5.66667H9.625V4.04762C9.625 3.40352 9.34844 2.78581 8.85616 2.33036C8.36387 1.87491 7.69619 1.61905 7 1.61905Z" fill="#222222"/>
</svg>

<svg width="14" height="17" viewBox="0 0 14 17" fill="none" xmlns="http://www.w3.org/2000/svg"><path d="M7 12.952c-.464 0-.91-.17-1.237-.474a1.56 1.56 0 0 1-.513-1.145c0-.898.779-1.619 1.75-1.619.464 0 .91.17 1.237.474.329.304.513.716.513 1.145 0 .43-.184.841-.513 1.145A1.825 1.825 0 0 1 7 12.952Zm5.25 2.429V7.286H1.75v8.095h10.5Zm0-9.714c.464 0 .91.17 1.237.474.329.304.513.715.513 1.145v8.095c0 .43-.184.841-.513 1.145A1.825 1.825 0 0 1 12.25 17H1.75c-.464 0-.91-.17-1.237-.474A1.56 1.56 0 0 1 0 15.38V7.286c0-.899.779-1.62 1.75-1.62h.875V4.049c0-1.074.46-2.103 1.281-2.862C4.726.426 5.84 0 7 0a4.69 4.69 0 0 1 1.674.308 4.432 4.432 0 0 1 1.42.878c.406.375.728.822.948 1.313.22.49.333 1.017.333 1.549v1.619h.875ZM7 1.619c-.696 0-1.364.256-1.856.711a2.34 2.34 0 0 0-.769 1.718v1.619h5.25v-1.62a2.34 2.34 0 0 0-.769-1.717A2.737 2.737 0 0 0 7 1.62Z" fill="#222"/></svg>
